X:198
T:Robber or London Bridge - children at Menhenniot
%%VWML:SBG-1-2-821-0
F:http://www.vwml.org/record/SBG/1/2/821
Z:Original Sibelius transcriptions by M. & S. Graebe
M:4/4
I:linebreak $
K:F
V:1 treble nm="P1" snm="Voice"
V:1
 c3/2 d/ c3/2 B/ | A B c2 | G A B2 | G A B2 | c3/2 d/ c B | A B c2 | G c A F | %7
w: ||||||My fair lad- ye|

